assets/Wedding/Flat/wedding_flat.svg

<svg width="32" height="32" viewBox="0 0 32 32" fill="none" xmlns="http://www.w3.org/2000/svg">
<path d="M10.5 4H10V3.5C10 3.22 9.78 3 9.5 3C9.22 3 9 3.22 9 3.5V4H8.5C8.22 4 8 4.22 8 4.5C8 4.78 8.22 5 8.5 5H9V8.8C9 9.08 9.22 9.3 9.5 9.3C9.78 9.3 10 9.08 10 8.8V5H10.5C10.78 5 11 4.78 11 4.5C11 4.23 10.78 4 10.5 4Z" fill="#8C5543"/>
<path d="M29 30H15V16H28.03C28.57 16 29 16.43 29 16.97V30Z" fill="#E39D89"/>
<path d="M13.0514 18.093L13.5992 16.7475C13.7817 16.299 14.2179 16.01 14.7149 16.01L28.2962 16C28.7831 16 29.2294 16.289 29.4119 16.7375L29.9495 18.0532C30.1321 18.5017 29.7974 19 29.3004 19H13.6905C13.1934 19 12.8689 18.5316 13.0514 18.093Z" fill="#F8312F"/>
<path d="M15 30H4V11.5L9.51001 8L15 11.5V30Z" fill="#FBB8AB"/>
<path d="M13 29H6V25.5C6 23.57 7.57 22 9.5 22C11.43 22 13 23.57 13 25.5V29Z" fill="#321B41"/>
<path d="M7 15.5C7 16.879 8.12103 18 9.5 18C10.879 18 12 16.8889 12 15.5C12 14.121 10.879 13 9.5 13C8.12103 13 7 14.121 7 15.5ZM18.01 27V22.5C18.01 21.67 18.68 21 19.51 21C20.34 21 21.01 21.67 21.01 22.5V27H18.01ZM23.01 27V22.5C23.01 21.67 23.68 21 24.51 21C25.34 21 26.01 21.67 26.01 22.5V27H23.01Z" fill="#50E2FF"/>
<path d="M14 30H5C5 29.45 5.45 29 6 29H13C13.56 29 14 29.45 14 30Z" fill="#9B9B9B"/>
<path d="M8.9008 9.19743L3.38815 13.1328C2.81891 13.5523 2.00999 13.1328 2 12.4237C2 12.144 2.13982 11.8743 2.36951 11.7145L8.55126 7.29965C9.12051 6.90012 9.87949 6.90012 10.4487 7.29965L16.6305 11.7145C16.8602 11.8743 17 12.144 17 12.4237C17 13.1328 16.2011 13.5424 15.6218 13.1328L10.1092 9.19743C9.74967 8.93773 9.26032 8.93773 8.9008 9.19743ZM26.01 9.83V9.79C26 8.79 25.2 8 24.21 8C24.07 8 23.92 8.02 23.79 8.06C23.29 8.16 22.87 8.48 22.63 8.91C22.6 8.96 22.56 8.98 22.51 8.98C22.46 8.98 22.42 8.96 22.39 8.91C22.15 8.48 21.73 8.16 21.23 8.06C21.1 8.02 20.95 8 20.81 8C19.82 8 19.02 8.79 19.01 9.79V9.83C19.01 10.39 19.18 10.92 19.47 11.35C20.19 12.35 21.1 13.22 22.14 13.9C22.25 13.97 22.38 14 22.51 14C22.64 14 22.77 13.97 22.88 13.9C23.92 13.22 24.83 12.35 25.55 11.35C25.84 10.92 26.01 10.39 26.01 9.83Z" fill="#F8312F"/>
</svg>

<svg xmlns="http://www.w3.org/2000/svg" width="32" height="32" fill="none"><path fill="#8C5543" d="M10.5 4H10v-.5c0-.28-.22-.5-.5-.5s-.5.22-.5.5V4h-.5c-.28 0-.5.22-.5.5s.22.5.5.5H9v3.8c0 .28.22.5.5.5s.5-.22.5-.5V5h.5c.28 0 .5-.22.5-.5 0-.27-.22-.5-.5-.5Z"/><path fill="#E39D89" d="M29 30H15V16h13.03c.54 0 .97.43.97.97V30Z"/><path fill="#F8312F" d="m13.051 18.093.548-1.346a1.191 1.191 0 0 1 1.116-.737L28.296 16c.487 0 .933.289 1.116.738l.538 1.315a.692.692 0 0 1-.65.947H13.69c-.497 0-.821-.468-.639-.907Z"/><path fill="#FBB8AB" d="M15 30H4V11.5L9.51 8 15 11.5V30Z"/><path fill="#321B41" d="M13 29H6v-3.5C6 23.57 7.57 22 9.5 22s3.5 1.57 3.5 3.5V29Z"/><path fill="#50E2FF" d="M7 15.5C7 16.879 8.121 18 9.5 18s2.5-1.111 2.5-2.5c0-1.379-1.121-2.5-2.5-2.5A2.502 2.502 0 0 0 7 15.5ZM18.01 27v-4.5c0-.83.67-1.5 1.5-1.5s1.5.67 1.5 1.5V27h-3Zm5 0v-4.5c0-.83.67-1.5 1.5-1.5s1.5.67 1.5 1.5V27h-3Z"/><path fill="#9B9B9B" d="M14 30H5c0-.55.45-1 1-1h7c.56 0 1 .45 1 1Z"/><path fill="#F8312F" d="m8.9 9.197-5.512 3.936c-.57.42-1.378 0-1.388-.71 0-.279.14-.549.37-.709L8.55 7.3c.57-.4 1.328-.4 1.898 0l6.182 4.414a.872.872 0 1 1-1.009 1.418l-5.513-3.935c-.36-.26-.849-.26-1.208 0Zm17.11.633v-.04C26 8.79 25.2 8 24.21 8c-.14 0-.29.02-.42.06-.5.1-.92.42-1.16.85a.13.13 0 0 1-.12.07.13.13 0 0 1-.12-.07 1.72 1.72 0 0 0-1.16-.85 1.47 1.47 0 0 0-.42-.06c-.99 0-1.79.79-1.8 1.79v.04c0 .56.17 1.09.46 1.52.72 1 1.63 1.87 2.67 2.55.11.07.24.1.37.1s.26-.03.37-.1c1.04-.68 1.95-1.55 2.67-2.55.29-.43.46-.96.46-1.52Z"/></svg>
